X: 12429
T: Farewell
R: reel
M: 4/4
K: Bminor
|:c3 d3 (b2|b8)|c3 a3 (f2|f8)|g3 f3 (d2|d8|d8|d8):|
|:FBBA EFBA|BAFB AFEA|FBBA EFBA|BAFB AFEA|
FBBA EFBA|BAFB AFED|DEEF EDB,D|GFFE DB,DG:|
|:FBBB cBde|eeef edca|ggga gfed|effd edcA|
FBBB cBde|eeef edca|g2 fe de (c2|c)agf dccA:|

